X: 1
T: VILLAGE BELLS -- HIGHLAND FLING 
B: Ryan's Mammoth Collection of Fiddle Tunes
R: highland fling
M: C|
L: 1/8
Z: Contributed 20080604 by John Chambers jc:jc.tzo.net
K: D
((3uABc) \
| kvd>af>d Tg2e>c | d>fe>d (c<A) ((3uABc) \
| kvd>af>d Tg2e>d | (c<e)   A>c     d2 :|
|: ((3uABc) \
| vTd2 f>d Tg2e>c | Td2f>d c>de>c \
|  Td2 f>d a>fb>g | f>ed>c d2 :|
